img/social-icons/instagram.svg

<svg width="20" height="20" viewBox="0 0 20 20" fill="none" xmlns="http://www.w3.org/2000/svg">
<path d="M17.6022 0H2.39782C1.08992 0 0 1.03542 0 2.34332V17.6567C0 18.9646 1.08992 20 2.39782 20H17.6022C18.9101 20 20 18.9646 20 17.6567V2.34332C20 1.03542 18.9101 0 17.6022 0ZM14.3869 3.10627C14.3869 2.77929 14.6594 2.50681 14.9864 2.50681H16.8937C17.2207 2.50681 17.4932 2.77929 17.4932 3.10627V4.95913C17.4932 5.2861 17.2207 5.55858 16.8937 5.55858H15.0409C14.7139 5.55858 14.4414 5.2861 14.4414 4.95913L14.3869 3.10627ZM10.0272 6.15804C12.1526 6.15804 13.8965 7.84741 13.8965 9.97275C13.8965 12.0981 12.1526 13.7875 10.0272 13.7875C7.90191 13.7875 6.15804 12.0981 6.15804 9.97275C6.15804 7.90191 7.90191 6.15804 10.0272 6.15804ZM18.0926 17.4932C18.0926 17.8202 17.8202 18.0926 17.4932 18.0926H2.50681C2.17984 18.0926 1.90736 17.8202 1.90736 17.4932V8.11989H4.35967C4.0327 8.61035 3.92371 9.48229 3.92371 10.0272C3.92371 13.3515 6.6485 16.0763 10.0272 16.0763C13.406 16.0763 16.1308 13.3515 16.1308 10.0272C16.1308 9.48229 16.0763 8.61035 15.6403 8.11989H18.1471L18.0926 17.4932Z" fill="#B3B3B3"/>
</svg>

<svg width="20" height="20" fill="none" xmlns="http://www.w3.org/2000/svg"><path d="M17.602 0H2.398C1.09 0 0 1.035 0 2.343v15.314C0 18.965 1.09 20 2.398 20h15.204C18.91 20 20 18.965 20 17.657V2.343C20 1.035 18.91 0 17.602 0zm-3.215 3.106c0-.327.272-.6.6-.6h1.907c.327 0 .6.273.6.6V4.96c0 .327-.273.6-.6.6H15.04a.605.605 0 01-.6-.6l-.054-1.853zm-4.36 3.052c2.126 0 3.87 1.69 3.87 3.815s-1.744 3.814-3.87 3.814c-2.125 0-3.869-1.689-3.869-3.814 0-2.071 1.744-3.815 3.87-3.815zm8.066 11.335c0 .327-.273.6-.6.6H2.507a.605.605 0 01-.6-.6V8.12H4.36c-.327.49-.436 1.362-.436 1.907 0 3.325 2.725 6.05 6.103 6.05 3.379 0 6.104-2.726 6.104-6.05 0-.545-.055-1.417-.49-1.907h2.506l-.054 9.373z" fill="#B3B3B3"/></svg>
